static/logos/workday-glyph-color.svg

<svg width="41" height="53" viewBox="0 0 41 53" fill="none" xmlns="http://www.w3.org/2000/svg">
<g clip-path="url(#clip0_1_355)">
<path fill-rule="evenodd" clip-rule="evenodd" d="M0.118145 25.854C0.21511 25.6543 0.404879 25.4563 0.59022 25.3612C0.865797 25.22 1.12588 25.2051 2.93688 25.2276C5.23589 25.2562 5.4129 25.2991 5.71345 25.9006C5.80466 26.0833 6.00293 26.7538 6.154 27.3907C6.30499 28.0276 7.06991 31.2143 7.85369 34.4722C10.0817 43.7332 10.4805 45.3357 10.689 46.9629C10.7498 47.4371 10.7944 47.9135 10.8634 48.5822C10.959 49.5084 11.05 50.2789 11.0656 50.2946C11.0811 50.3102 11.1856 49.7328 11.2978 49.0114C11.41 48.2902 11.6127 47.1388 11.7481 46.4529C12.1234 44.5518 17.0408 26.1108 17.2519 25.8125C17.3495 25.6747 17.5556 25.4924 17.7101 25.4075C17.9531 25.2737 18.3142 25.2493 20.3975 25.2255C21.9559 25.2077 22.9315 25.2325 23.1659 25.296C23.5907 25.4111 24.0837 25.8182 24.219 26.1655C24.2716 26.3004 24.5983 27.4731 24.9451 28.7714C25.292 30.0697 26.2677 33.6973 27.1134 36.8327C29.4717 45.5753 29.5135 45.7411 29.8031 47.4877C29.9524 48.3883 30.1008 49.3556 30.133 49.6374C30.165 49.9191 30.2171 50.1496 30.2487 50.1496C30.2803 50.1496 30.3786 49.5984 30.4671 48.9248C30.798 46.4056 31.173 44.5347 33.1232 35.6748C34.2232 30.6776 35.1636 26.4441 35.213 26.267C35.3537 25.7631 35.6182 25.4941 36.1208 25.3439C36.4608 25.2424 37.0164 25.2084 38.3327 25.2084C39.6515 25.2084 40.1657 25.24 40.3917 25.3349C40.6981 25.4638 40.9703 25.8587 40.9703 26.1746C40.9703 26.341 40.4539 28.2947 36.8934 41.5983C36.0083 44.9052 35.0129 48.6289 34.6813 49.8731C34.3454 51.1335 34.0024 52.2379 33.9066 52.3672C33.8121 52.4947 33.5995 52.6793 33.434 52.7773C33.1493 52.946 32.9742 52.9554 30.1226 52.9554C26.9196 52.9554 26.7324 52.9334 26.433 52.5213C26.3519 52.4097 26.0854 51.5798 25.8407 50.6772C24.5217 45.8103 21.3819 33.9518 21.2632 33.3889C21.1109 32.6662 20.7435 30.225 20.6449 29.2796C20.6101 28.9466 20.5705 28.6861 20.5569 28.7006C20.5432 28.715 20.4666 29.288 20.3866 29.9739C20.1586 31.9273 19.9273 33.1045 19.3191 35.4075C16.0562 47.7603 14.9127 52.0182 14.7947 52.2529C14.718 52.4054 14.4893 52.6259 14.2863 52.7428C13.9232 52.9521 13.8752 52.9559 11.2166 52.985C9.73108 53.0013 8.3061 52.9884 8.04992 52.9562C7.38878 52.8734 7.09922 52.6009 6.88102 51.8565C6.61049 50.9338 0.13435 26.9932 0.0398641 26.5666C-0.0282331 26.2595 -0.0134446 26.1248 0.118145 25.854Z" fill="#005CB9"/>
<path d="M18.3861 0.0599797C18.2156 0.0772603 17.5382 0.174975 16.8807 0.277145C14.895 0.585703 12.7406 1.28041 10.9098 2.20234C9.57623 2.87388 8.77325 3.37207 7.58266 4.26639C5.35236 5.94164 3.30874 8.25859 1.7998 10.8227C1.38263 11.5316 0.621511 13.0911 0.319634 13.8557C0.119061 14.3634 0.0413121 14.7075 0.0390983 15.0969C0.0374158 15.3933 0.0952416 15.7783 0.167589 15.9525C0.377991 16.4592 0.854139 16.9327 1.42743 17.2055C1.85373 17.4083 2.08281 17.4589 2.57942 17.4592C3.3756 17.4599 3.95535 17.2504 4.48711 16.77C4.8284 16.4617 4.99479 16.1912 5.40063 15.285C5.98454 13.9812 6.58679 12.9057 7.29344 11.9052C7.93545 10.9961 9.89449 8.99551 10.7705 8.35453C11.5487 7.78507 12.6904 7.10354 13.5497 6.6954C15.0399 5.9876 17.0328 5.44478 18.8289 5.25728C22.6785 4.85555 26.5926 5.84874 29.7917 8.0392C30.319 8.40022 31.1866 9.12556 31.7829 9.70393C33.4679 11.338 34.601 12.9902 35.652 15.3456C36.0308 16.1944 36.1995 16.4664 36.5365 16.7708C36.7656 16.9778 37.1614 17.2223 37.4163 17.3141C38.0707 17.5499 39.0721 17.4853 39.691 17.1674C40.1972 16.9074 40.6585 16.4259 40.8552 15.9525C40.9275 15.7783 40.9853 15.3896 40.9836 15.0887C40.9812 14.6667 40.9063 14.3612 40.6556 13.7512C39.8252 11.7308 38.5793 9.62367 37.1861 7.88323C36.7939 7.39331 36.0198 6.55137 35.4658 6.01228C33.1464 3.75538 30.3855 2.0714 27.3805 1.08088C24.9609 0.283292 23.0707 -0.00718345 20.4404 0.0142838C19.481 0.0221224 18.5566 0.042699 18.3861 0.0599797Z" fill="#F18902"/>
</g>
<defs>
<clipPath id="clip0_1_355">
<rect width="41" height="53" fill="white"/>
</clipPath>
</defs>
</svg>

<svg xmlns="http://www.w3.org/2000/svg" width="49.509" height="64" fill="none" viewBox="0 0 41 53"><g clip-path="url(#a)"><path fill="#005CB9" fill-rule="evenodd" d="M.118 25.854c.097-.2.287-.398.472-.493.276-.141.536-.156 2.347-.133 2.299.028 2.476.071 2.776.673.092.182.29.853.441 1.49.151.637.916 3.823 1.7 7.081 2.228 9.261 2.626 10.864 2.835 12.49.06.475.105.951.174 1.62.096.926.187 1.697.203 1.713.015.015.12-.562.232-1.284.112-.72.315-1.872.45-2.558.375-1.901 5.293-20.342 5.504-20.64.098-.138.304-.32.458-.405.243-.134.604-.159 2.688-.183 1.558-.017 2.534.008 2.768.071.425.115.918.522 1.053.87.053.134.38 1.307.726 2.605.347 1.299 1.323 4.926 2.168 8.062 2.359 8.742 2.4 8.908 2.69 10.655.15.9.298 1.868.33 2.15.032.281.084.512.116.512.031 0 .13-.552.218-1.225.331-2.52.706-4.39 2.656-13.25 1.1-4.997 2.04-9.23 2.09-9.408.14-.504.405-.773.908-.923.34-.102.895-.136 2.212-.136 1.319 0 1.833.032 2.059.127.306.129.578.524.578.84 0 .166-.516 2.12-4.077 15.423l-2.212 8.275c-.336 1.26-.679 2.365-.774 2.494a1.906 1.906 0 0 1-.473.41c-.285.169-.46.178-3.311.178-3.203 0-3.39-.022-3.69-.434-.081-.111-.348-.941-.592-1.844-1.32-4.867-4.46-16.725-4.578-17.288-.152-.723-.52-3.164-.618-4.11-.035-.332-.075-.593-.088-.578-.014.014-.09.587-.17 1.273-.228 1.953-.46 3.13-1.068 5.433-3.263 12.353-4.406 16.611-4.524 16.846-.077.152-.306.373-.509.49-.363.21-.41.213-3.07.242-1.485.016-2.91.003-3.166-.029-.661-.083-.95-.355-1.169-1.1-.27-.922-6.747-24.863-6.841-25.29-.068-.306-.053-.441.078-.712Z" clip-rule="evenodd"/><path fill="#F18902" d="M18.386.06c-.17.017-.848.115-1.505.217a20.899 20.899 0 0 0-5.971 1.925c-1.334.672-2.137 1.17-3.327 2.064C5.353 5.942 3.309 8.26 1.8 10.823c-.417.709-1.178 2.268-1.48 3.033-.2.507-.279.851-.28 1.24-.003.297.055.682.128.857.21.506.686.98 1.26 1.253.426.202.655.253 1.151.253.797 0 1.376-.209 1.908-.689.341-.308.508-.579.914-1.485.584-1.304 1.186-2.38 1.892-3.38.642-.909 2.601-2.91 3.478-3.55.778-.57 1.92-1.251 2.779-1.66 1.49-.707 3.483-1.25 5.279-1.438 3.85-.401 7.764.592 10.963 2.782.527.361 1.395 1.087 1.99 1.665 1.686 1.634 2.819 3.286 3.87 5.642.379.848.547 1.12.884 1.425.23.207.625.451.88.543.655.236 1.656.171 2.275-.147.506-.26.967-.741 1.164-1.215.073-.174.13-.562.129-.863-.003-.422-.078-.728-.328-1.338a24.824 24.824 0 0 0-3.47-5.868 25.06 25.06 0 0 0-1.72-1.87A21.057 21.057 0 0 0 27.38 1.08C24.96.283 23.07-.007 20.44.014c-.96.008-1.884.029-2.055.046Z"/></g><defs><clipPath id="a"><path fill="#fff" d="M0 0h41v53H0z"/></clipPath></defs></svg>
